icons/op-publish-24.svg

<svg width="24" height="24" viewBox="0 0 24 24" fill="none" xmlns="http://www.w3.org/2000/svg">
<path d="M12 4C7.57647 4 4 7.59055 4 12C4 16.4094 7.57647 20 12 20C16.4235 20 20 16.4094 20 12C20 7.59055 16.4235 4 12 4ZM15.2 15.5276C15.2 15.5906 15.2 15.685 15.1373 15.748V15.7165C14.7608 16 14.7608 16.8189 14.2902 17.0079C14.0392 17.1339 14.0706 16.7874 14.1647 16.6614C14.3216 16.4724 14.102 16.3465 14.1961 16.1575C14.102 16.126 14.0078 15.9055 14.0078 15.811C14.102 15.7795 14.1647 15.7165 14.1647 15.748C14.1961 15.7165 14.3216 15.4961 14.3216 15.4646C14.3529 15.6535 14.102 16 14.1961 16.1575C14.2275 16.1575 14.2275 16.1575 14.2902 16.0945C14.2902 16.189 14.2902 16.2835 14.3529 16.378C14.2275 15.937 14.6667 15.937 14.8863 15.6535C14.949 15.5591 15.0745 15.2756 15.1686 15.2441C15.2314 15.3071 15.2314 15.4016 15.2 15.4961C15.2314 15.4331 15.2 15.4961 15.2 15.5276ZM17.4275 10.3622C17.2706 10.0787 17.1451 9.6378 16.8941 9.44882C16.9569 9.51181 16.9569 9.5748 16.9255 9.66929C16.8 9.6378 16.6745 9.54331 16.6118 9.44882C16.6118 9.38583 16.7373 9.51181 16.6745 9.35433C16.4549 9.38583 16.298 9.16535 16.1412 9.03937C15.8588 9.00787 15.5451 9.25984 15.2314 9.10236C15.1686 9.03937 15.1059 8.8189 14.9804 8.94488C14.9176 9.00787 14.8549 9.00787 14.7922 9.00787C14.4471 8.88189 14.2902 8.59843 14.0078 8.59843C14.0078 8.72441 14.2275 8.91339 14.3216 8.97638C14.4471 9.03937 14.5412 9.38583 14.5725 9.10236C14.7608 9.19685 14.6039 9.44882 14.8863 9.35433C15.1059 9.44882 15.0431 9.10236 15.1059 9.00787C15.1686 9.03937 15.2 9.19685 15.2314 9.25984C15.3569 9.35433 15.5137 9.32283 15.6078 9.41732C15.7333 9.54331 15.8275 9.76378 15.7961 9.92126C15.6706 9.88976 15.7647 10.0472 15.6706 10.1732C15.6078 10.2992 15.6078 10.3307 15.5451 10.4567C15.4196 10.4882 15.2314 10.5512 15.2627 10.7402C15.1686 10.8661 14.2902 11.4961 14.1647 11.3071C14.0392 11.1181 14.0078 10.8031 13.8824 10.5827C13.6941 10.5197 13.349 10.0787 13.2863 9.92126C13.3176 9.6063 12.5333 9.03937 12.4078 9.00787C12.502 9.41732 12.8471 9.6378 13.0039 9.95276C13.1608 10.2362 13.4118 10.8661 13.6 10.9291C13.9765 10.8976 14.1647 11.5276 14.3529 11.6535C14.6039 11.8425 15.1059 11.2756 15.3255 11.3386C15.3255 11.622 15.3255 11.7165 15.2314 12.0315C15.0745 12.6929 14.7608 12.9764 14.3843 13.4803C14.1647 13.7953 14.0078 14.0157 13.851 14.3307C13.7255 14.6142 14.102 15.1496 14.0078 15.3071C14.0706 15.7165 13.9451 15.9685 13.5686 16.189C13.3176 16.3465 13.0667 16.5039 13.1608 16.7874C13.2549 17.1024 12.8784 17.1339 12.8471 17.3228C12.7216 17.5748 12.5647 17.7323 12.3765 17.8268C12.251 17.8583 12.1255 17.8583 12 17.8583C11.7804 17.8583 11.5294 17.8268 11.3098 17.8268C10.9961 17.4488 10.6824 17.0394 10.3686 16.6614C10.1804 16.4409 9.89804 16.0315 10.2118 15.748C10.2431 15.5591 10.0235 15.1181 9.89804 14.9606C9.74118 14.6772 8.95686 14.0787 9.27059 13.7323C9.30196 13.5433 9.11373 13.3228 9.11373 13.1339C8.95686 13.0079 8.8 13.3228 8.64314 13.0394C8.4549 12.7559 8.14118 12.8189 7.8902 13.0079C7.82745 13.0394 7.10588 13.1654 7.04314 13.1024C6.5098 12.6299 6.35294 11.8425 6.54118 11.2126C6.60392 10.9291 6.60392 10.4567 6.82353 10.2677C6.91765 9.98425 7.23137 9.70079 7.38824 9.48031C7.48235 9.35433 7.63922 9.35433 7.73333 9.22835C7.92157 9.03937 7.98431 8.8189 8.20392 8.62992C8.39216 8.47244 8.86275 8.18898 8.48627 8.12598C8.61176 7.90551 8.86275 7.65354 8.95686 7.40157C9.08235 7.30709 9.33333 7.33858 9.4902 7.27559C9.61569 6.99213 9.64706 7.02362 9.61569 6.83465C9.64706 6.74016 9.96078 6.64567 10.0549 6.64567C10.1804 6.58268 10.3059 6.45669 10.4314 6.3622C10.9333 6.23622 11.4667 6.14173 12 6.14173C14.9176 6.14173 17.3333 8.28346 17.7725 11.0551C17.6471 10.8031 17.5216 10.4882 17.4275 10.3622ZM11.9059 6.83465C11.9373 6.83465 11.9373 6.80315 11.9686 6.77165C11.7804 6.83465 11.8745 6.64567 11.7176 6.83465C11.749 6.99213 11.5608 7.11811 11.6549 7.27559C11.8118 7.43307 12 7.1811 12.1882 7.14961C12.1882 7.27559 12.5647 7.24409 12.6275 7.27559C12.5333 7.24409 12.6588 7.24409 12.6275 7.27559C12.9725 7.05512 11.9059 6.83465 11.9059 6.83465ZM11.6235 7.87402C11.6235 7.77953 11.5294 7.77953 11.4667 7.65354C11.6235 7.49606 11.3725 7.59055 11.498 7.40157C11.4353 7.37008 11.3725 7.37008 11.2784 7.40157C11.2471 7.52756 11.3412 7.49606 11.1843 7.46457C11.1529 7.59055 11.3098 7.65354 11.2784 7.77953C11.2784 7.74803 11.2471 7.74803 11.2157 7.74803C11.1843 7.84252 11.2157 7.81102 11.2157 7.93701C10.9647 7.90551 11.0902 7.71654 10.902 7.46457C11.0902 7.30709 10.5255 7.02362 10.5882 6.92913C10.2118 7.05512 10.902 7.46457 10.8078 7.55906C10.6196 7.46457 10.7451 7.59055 10.651 7.71654C10.4627 7.90551 10.4941 7.9685 10.2431 7.87402C10.2431 7.68504 10.7137 7.87402 10.4941 7.46457C10.3686 7.30709 10.2745 7.05512 10.0863 7.2126C9.86667 7.33858 9.52157 7.40157 9.36471 7.68504C9.27059 7.77953 8.64314 8.28346 8.64314 8.31496C8.89412 8.50394 9.86667 7.71654 10.0863 7.9685C10.0863 8.12598 9.89804 8.25197 9.89804 8.40945C9.96078 8.44094 9.99216 8.50394 10.0549 8.50394C10.3686 8.44094 10.3059 8.66142 10.5255 8.72441C10.9333 8.8189 10.6196 8.75591 10.8706 8.50394C10.9333 8.44094 11.3725 8.44094 11.4039 8.56693C11.4039 8.47244 11.5922 8.53543 11.4039 8.56693C11.5922 8.53543 11.7804 8.72441 11.9373 8.59843C12.0314 8.47244 12.0941 8.50394 12.1882 8.56693C12.5333 8.8189 12.4078 7.84252 12.4078 7.77953C12.3137 7.87402 11.5922 7.93701 11.6235 7.87402ZM10.0863 7.71654C10.0235 7.74803 9.99216 7.74803 9.96078 7.74803C9.99216 7.65354 10.1176 7.27559 10.2118 7.27559C10.2118 7.40157 10.0863 7.59055 10.0863 7.71654ZM10.0863 7.71654C10.0235 7.71654 10.0863 7.62205 10.0863 7.71654V7.71654ZM13.1608 6.83465C13.1922 6.80315 13.1922 6.70866 13.2549 6.70866C13.1922 6.45669 12.9412 6.67717 12.9412 6.83465C13.0353 6.96063 13.4431 7.14961 13.4745 7.27559C13.3804 7.30709 13.5059 7.59055 13.6627 7.59055C13.7569 7.68504 13.8824 7.68504 14.0078 7.65354C13.9765 7.40157 13.349 6.92913 13.1608 6.83465ZM13.6627 7.59055C13.5373 7.59055 13.7255 7.65354 13.6627 7.59055V7.59055ZM13.9451 6.86614C13.851 6.83465 13.7569 6.61417 13.6627 6.58268C13.6314 6.64567 13.6314 6.64567 13.6314 6.67717C13.6314 6.64567 13.6627 6.74016 13.6314 6.67717C13.6627 6.74016 13.851 6.96063 13.9451 6.86614ZM9.58431 7.2126C9.55294 7.24409 9.52157 7.24409 9.4902 7.27559H9.45882C9.52157 7.27559 9.55294 7.1811 9.58431 7.2126Z" fill="black"/>
</svg>

<svg xmlns="http://www.w3.org/2000/svg" width="24" height="24" viewBox="0 0 24 24"><path d="M12 4c-4.424 0-8 3.591-8 8s3.576 8 8 8c4.424 0 8-3.591 8-8s-3.576-8-8-8Zm3.2 11.528c0 .063 0 .157-.063.22v-.032c-.376.284-.376 1.103-.847 1.292-.251.126-.219-.221-.125-.347.157-.189-.063-.315.031-.504-.094-.031-.188-.252-.188-.346.094-.031.157-.095.157-.063.031-.032.157-.252.157-.283.031.188-.22.535-.126.692.031 0 .031 0 .094-.062 0 .094 0 .189.063.283-.126-.441.314-.441.533-.725.063-.094.189-.377.283-.409.062.063.062.158.031.252.031-.063 0 0 0 .032Zm2.227-5.166c-.156-.283-.282-.724-.533-.913.063.063.063.126.031.22a.572.572 0 0 1-.313-.22c0-.063.125.063.062-.095-.219.032-.376-.189-.533-.315-.282-.031-.596.221-.91.063-.062-.063-.125-.283-.251-.157-.062.063-.125.063-.188.063-.345-.126-.502-.41-.784-.41 0 .126.219.315.314.378.125.063.219.41.25.126.189.095.032.347.314.252.22.095.157-.252.22-.346.063.031.094.189.125.252.126.094.283.063.377.157.125.126.22.347.188.504-.125-.031-.031.126-.125.252-.063.126-.063.158-.126.284-.125.031-.314.094-.282.283-.094.126-.973.756-1.098.567-.126-.189-.157-.504-.283-.724-.188-.063-.533-.504-.596-.662.032-.315-.753-.882-.878-.913.094.409.439.63.596.945.157.283.408.913.596.976.376-.031.565.599.753.724.251.189.753-.377.972-.314 0 .283 0 .377-.094.692-.156.662-.47.945-.847 1.449-.219.315-.376.536-.533.851-.125.283.251.819.157.976.063.409-.063.662-.439.882-.251.157-.502.315-.408.598.094.315-.283.347-.314.536-.125.252-.282.409-.47.504-.126.031-.251.031-.377.031-.22 0-.471-.031-.69-.031-.314-.378-.628-.788-.941-1.166-.189-.22-.471-.629-.157-.913.031-.189-.188-.63-.314-.787-.157-.284-.941-.882-.627-1.229.031-.189-.157-.409-.157-.598-.157-.126-.314.189-.471-.095-.188-.283-.502-.22-.753-.031-.063.031-.784.157-.847.094-.533-.472-.69-1.26-.502-1.889.063-.284.063-.756.283-.945.094-.284.407-.567.564-.788.094-.126.251-.126.345-.252.189-.189.251-.409.471-.598.188-.158.659-.441.282-.504.126-.22.377-.472.471-.724.125-.095.376-.063.533-.126.126-.284.157-.252.126-.441.031-.095.345-.189.439-.189.125-.063.251-.189.376-.284.502-.126 1.036-.22 1.569-.22a5.85 5.85 0 0 1 5.773 4.913c-.126-.252-.251-.567-.346-.693Zm-5.521-3.527c.031 0 .031-.032.063-.063-.189.063-.095-.126-.251.063.031.157-.157.283-.063.441.157.157.345-.095.533-.126 0 .126.377.094.439.126-.094-.032.032-.032 0 0 .346-.221-.721-.441-.721-.441Zm-.283 1.039c0-.094-.094-.094-.156-.22.156-.158-.094-.063.031-.252-.063-.032-.125-.032-.22 0-.031.126.063.094-.094.063-.031.126.126.189.094.315 0-.032-.031-.032-.062-.032-.032.095 0 .063 0 .189-.251-.031-.126-.22-.314-.472.188-.158-.377-.441-.314-.536-.376.126.314.536.22.63-.188-.094-.063.032-.157.158-.188.189-.157.251-.408.157 0-.189.471 0 .251-.409-.125-.158-.22-.41-.408-.252-.219.126-.564.189-.721.472-.094.095-.722.598-.722.63.251.189 1.224-.598 1.443-.347 0 .158-.188.284-.188.441.063.032.094.095.157.095.314-.063.251.157.47.22.408.095.095.032.346-.22.062-.063.502-.063.533.063 0-.095.188-.032 0 0 .188-.032.376.157.533.031.094-.126.157-.094.251-.031.345.252.22-.724.22-.787-.094.094-.816.157-.785.094Zm-1.537-.157c-.062.031-.094.031-.125.031.031-.094.157-.472.251-.472 0 .126-.126.315-.126.441Zm0 0c-.062 0 0-.095 0 0Zm3.075-.882c.031-.032.031-.126.094-.126-.063-.252-.314-.032-.314.126.094.126.502.315.534.441-.095.031.031.315.188.315.094.094.219.094.345.063-.032-.252-.659-.725-.847-.819Zm.502.756c-.126 0 .063.063 0 0Zm.282-.725c-.094-.031-.188-.252-.282-.283-.032.063-.032.063-.032.094 0-.031.032.063 0 0 .032.063.22.284.314.189Zm-4.361.347c-.031.031-.062.031-.094.063h-.031c.063 0 .094-.095.125-.063Z"/></svg>
